X:1
T:Dextera Domini
T:Oliver Hayes
T:Dextera Domini
C:Oliver Hayes
%%score [ 1 2 3 4 ]
L:1/8
Q:1/4=200
M:4/2
K:Db
V:1 treble nm="Soprano"
V:2 treble nm="Alto"
V:3 treble-8 nm="Tenor"
V:4 bass nm="Bass"
V:1
 z16 | z16 | z16 | z16 | z16 | z16 | z8 A8 | B4 c4 d8 | c8 B8 | d4 d4 e8 | d8 c8 | B8 d8 | e16 | %13
w: ||||||De-|xte- ra Do-|mi- ni|fe- cit vir-|tu- *|tem, de-||
 d8 e8 | d8 e4 f4 | g4 G4 A8 | (3A4 B4 c4 d8 | d16 | d8 z8 | B8 c4 d4 | e8 d8 | c8 e4 e4 | f8 e8 | %23
w: xte- ra|Do- mi- ni|fe- * cit|vir- * * *|tu-|tem.|De- xte- ra|Do- mi-|ni e- xal-|ta- *|
 d16 | c8 f8- | f8 e4 d4 | c8 B4 A4 | G4 F4 (3E4 F4 G4 | A8 c4 B4 | A8 A8 | z16 | z16 | z8 A8 | %33
w: vit|me. Non|_ mo- ri-|or, sed _|vi- * * * *|vam, sed _|vi- vam,|||non|
 e6 e2 e8 | d8 f8 | g4 f4 e8 | (3g4 f4 e4 d4 A4 | B4 c4 A8 | e4 f4 g4 G4 | (3A4 B4 c4 d4 e4 | %40
w: mo- ri- or,|sed vi-|vam, _ non|mo- * * * ri-|or, _ sed|vi- * * *||
 f8 z8 | d8 c8 | B8 A8 | d12 e4 | f8 g8 | d4 e4 f8 | e12 e4 | d4 c4 B4 c4 | d6 d2 d8 | z8 f6 e2 | %50
w: vam,|et nar-|ra- bo,|et nar-|ra- bo,|et _ nar-|ra- bo|o- * pe- ra|Do- mi- ni,|o- pe-|
 d8 c8 | B8 A8 | d6 c2 B8 | A8 B8 | G16 | F16 |] %56
w: ra Do-|mi- ni,|o- pe- ra|Do- *|mi-|ni.|
V:2
 z16 | z16 | z16 | z16 | z16 | D8 E4 F4 | G8 F8 | E8 G4 G4 | A8 G8 | F8 E8 | F8 E4 F4 | G8 A4 B4 | %12
w: |||||De- xte- ra|Do- mi-|ni fe- cit|vir- tu-|* tem,|de- xte- ra|Do- mi- ni|
 c8 B8 | A4 A12 | D8 z8 | E8 F4 G4 | A8 G8 | F8 A4 A4 | B8 A8 | G8 F8 | G8 B4 B4 | A8 B6 B2 | %22
w: fe- cit|vir- tu-|tem.|De- xte- ra|Do- mi-|ni e- xal-|ta- *|vit me,|de- xte- ra|Do- mi- ni|
 A12 E4 | G8 F8 | E8 A8- | A8 G4 F4 | E4 C4 D8 | D8 z8 | z16 | z16 | D8 A6 A2 | A8 G8 | B8 c8 | %33
w: e- xal-|ta- vit|me. Non|_ mo- ri-|or, sed vi-|vam,|||non mo- ri-|or, sed|vi- vam,|
 B8 A8 | F4 G4 A4 B4- | B8 c8 | B8 A8 | G8 F4 G4 | A8 D8 | z8 G8 | F8 E8 | D8 A4 G4 | F8 E8 | %43
w: non _|mo- * ri- or,|_ sed|vi- *|vam, sed _|vi- vam,|et|nar- ra-|bo, et _|_ _|
 G4 F4 G8 | A8 B8 | A4 A4 A8 | A6 A2 G8 | z8 B6 A2 | G8 F8 | E8 D8 | B,8 E4 F4 | G4 F4 E8 | %52
w: nar- * ra-|* bo|o- pe- ra|Do- mi- ni,|o- pe-|ra Do-|mi- ni,|o- pe- ra|Do- mi- ni,|
 F8 G4 F4 | E8 D8 | D16- | D16 |] %56
w: o- pe- ra|Do- mi-|ni.|_|
V:3
 z16 | z8 A8 | B4 c4 d8 | c8 B8 | d4 d4 e8 | d8 c8 | B8 d4 c4 | B8 B8 | e8 d8 | A4 A8 A4 | %10
w: |De-|xte- ra Do-|mi- ni|fe- cit vir-|tu- *|tem, de- *|xte- ra|Do- mi-|ni fe- cit|
 A4 G4 A8 | B8 z8 | A8 B4 c4 | d8 c8 | B8 c4 d4 | e8 d8 | c8 B8 | A4 G4 F8 | G2 A2 B2 c2 d8 | %19
w: vir- tu- *|tem.|De- xte- ra|Do- mi-|ni e- xal-|ta- *|vit me,|de- * *|xte- * * * ra|
 e4 d4 c8 | B8 d4 g4 | e4 f4 g8 | f2 e2 d4 c8 | B16 | c8 z8 | z16 | z16 | z8 A8 | e6 e2 e8 | %29
w: Do- * *|* mi- ni|e- xal- ta-||vit|me.|||Non|mo- ri- or,|
 d8 f8 | g8 e8 | e4 c4 d8 | e4 g4 f8 | g8 e8 | f8 f8 | g8 a2 g2 f2 e2 | d16 | z8 d8 | c8 B8 | %39
w: sed vi-|vam, non|mo- ri- or,|sed vi- vam,|non mo-|ri- or,|sed vi- * * *|vam,|et|nar- ra-|
 A8 B8 | A4 B4 c4 B4 | A8 e8 | d8 (3c4 B4 A4 | G4 A4 B4 c4 | d8 z8 | f6 e2 d8 | c8 B8 | A8 d4 d4 | %48
w: bo, et|nar- * ra- *|bo, et|nar- * * *|ra- * * *|bo|o- pe- ra|Do- mi-|ni, o- pe-|
 d2 e2 f2 g2 a8- | a4 g4 f8 | g4 f4 e8 | d8 c4 B4 | A8 d4 d4 | c8 d8 | B16 | A16 |] %56
w: ra _ _ _ Do-|* mi- ni,|o- pe- ra|Do- mi- ni,|o- pe- ra|Do- *|mi-|ni.|
V:4
 D,8 E,4 F,4 | G,8 F,8 | E,8 G,4 G,4 | A,8 G,8 | F,8 E,8 | F,8 A,8 | (3G,4 F,4 E,4 D,8 | G,8 G,8 | %8
w: De- xte- ra|Do- mi-|ni fe- cit|vir- tu-|* tem,|de- xte-|ra _ _ Do-|mi- ni|
 A,4 A,,4 B,,4 C,4 | D,8 C,8 | D,8 z8 | E,8 F,4 G,4 | A,8 G,8 | F,8 A,4 A,4 | B,8 A,8 | G,8 F,8- | %16
w: fe- * cit vir-|tu- *|tem.|De- xte- ra|Do- mi-|ni e- xal-|ta- *|vit me,|
 F,8 (3G,4 F,4 E,4 | D,16 | G,8 F,8 | E,8 A,8 | (3G,4 F,4 E,4 G,8 | A,4 A,4 E,8 | %22
w: _ de- * *||xte- ra|Do- mi-|* * * ni|e- xal- ta-|
 D,2 E,2 F,2 G,2 A,8 | B,16 | A,8 z8 | D,8 G,6 G,2 | A,8 G,8 | B,8 C8 | C4 B,4 A,4 G,4 | %29
w: |vit|me.|Non mo- ri-|or, sed|vi- vam,|vi- * * *|
 F,4 E,4 D,4 C,4 | B,,4 B,4 C4 B,4 | A,8 B,4 A,4 | G,8 F,8 | E,4 D,4 C,8 | B,,8 D,8 | E,8 z8 | %36
w: |vam, non mo- ri-|or, sed _|vi- *||vam, vi-|vam,|
 G,8 F,8 | E,8 D,8 | A,8 G,8 | F,8 G,8 | D8 A,4 G,4 | F,4 G,4 A,8 | B,8 z8 | B,6 A,2 G,8 | %44
w: et nar-|ra- bo,|et nar-|ra- bo,|et nar- *|ra- * *|bo|o- pe- ra|
 F,8 E,8 | D,8 F,6 G,2 | A,8 E,8 | F,8 G,4 A,4 | B,8 D8 | C8 B,4 A,4 | G,8 A,8 | G,8 A,8 | %52
w: Do- mi-|ni, o- pe-|ra Do-|* * mi-|ni, o-|* * pe-|ra Do-|mi- ni,|
 D,4 E,2 F,2 G,6 G,2 | A,8 G,8- | G,8 G,,8 | D,16 |] %56
w: o- * * pe- ra|Do- *|* mi-|ni.|

